X: 9285
T: Dance Of The Honeybees, The
R: hornpipe
M: 4/4
K: Dmajor
F3GE2|F3GE2|F3GE2|D3A BA|
F3GE2|D3A BA|F3A d2|E3A BA|
F3GE2|F3GE2|F3GE2|D4 A2|
d4A2|G3F EF|D4A2|D4A2|
d4A2|G3A E2|G3A E2|G3A ce|
d4A2|G3A E2|G3A B2|E3A BA|
D3A AA|D3A AA|D3A AA|GF GA (3Bcd|
D3A AA|D3A AA|D3A AA|GF GA (3Bcd|

